X: 38123
T: Sportin' Belles
R: reel
M: 4/4
K: Ddorian
(c Bd)|:ADD(B cB)cG|ADD(G EC)EG|ADD(G EG)cG|A/B/c (GE) DcBd|
ADD(B cB)cG|ADD(G EC)EG|ADD(c BG)Bd|1 cAGE DcBd:|2 cAGE FED(B||
|:c2)g(c ac)gc|c/c/(c g)c BGA(B|c2) g(c ac)gc|AcGF ECE(G|
c2) g(c ac)gc|c/c/(c g)c BAGE|FGA(B cB)cG|1 AcGE FED(B:|2 A/B/c (GE) DcBd||

